;FLAVOR:Marlin
;TIME:16491
;Filament used: 11.3924m
;Layer height: 0.2
;MINX:65.408
;MINY:43.515
;MINZ:0.2
;MAXX:178.708
;MAXY:180.215
;MAXZ:24
;Generated with Cura_SteamEngine 4.5.0
M140 S50
M105
M190 S50
M104 S200
M105
M109 S200
M82 ;absolute extrusion mode
; Ender 3 Custom Start G-code
G92 E0 ; Reset Extruder
G28 ; Home all axes
G1 Z2.0 F3000 ; Move Z Axis up little to prevent scratching of Heat Bed
G1 X0.1 Y20 Z0.3 F5000.0 ; Move to start position
G1 X0.1 Y200.0 Z0.3 F1500.0 E15 ; Draw the first line
G1 X0.4 Y200.0 Z0.3 F5000.0 ; Move to side a little
G1 X0.4 Y20 Z0.3 F1500.0 E30 ; Draw the second line
G92 E0 ; Reset Extruder
G1 Z2.0 F3000 ; Move Z Axis up little to prevent scratching of Heat Bed
G1 X5 Y20 Z0.3 F5000.0 ; Move over to prevent blob squish
G92 E0
G92 E0
G1 F2700 E-5
;LAYER_COUNT:120
;LAYER:0
M107
G0 F6000 X67.629 Y49.269 Z0.2
;TYPE:SKIRT
G1 F2700 E0
G1 F1200 X68.307 Y48.351 E0.03796
G1 X68.436 Y48.194 E0.04472
G1 X69.324 Y47.235 E0.08819
G1 X69.516 Y47.051 E0.09703
G1 X70.22 Y46.432 E0.12821
G1 X70.975 Y45.874 E0.15944
G1 X71.46 Y45.565 E0.17856
G1 X71.994 Y45.244 E0.19929
G1 X72.817 Y44.796 E0.23045
G1 X74.068 Y44.275 E0.27552
G1 X74.259 Y44.209 E0.28225
G1 X75.316 Y43.902 E0.31885
G1 X75.527 Y43.852 E0.32607
G1 X76.772 Y43.632 E0.36812
G1 X76.975 Y43.608 E0.37492
G1 X77.796 Y43.542 E0.40231
G1 X78.317 Y43.523 E0.41965
G1 X78.844 Y43.515 E0.43718
G1 X165.001 Y43.515 E3.30277
G1 X165.158 Y43.516 E3.308
G1 X165.929 Y43.527 E3.33364
G1 X166.707 Y43.566 E3.35955
G1 X166.918 Y43.584 E3.36659
G1 X168.121 Y43.754 E3.407
G1 X168.338 Y43.797 E3.41436
G1 X169.25 Y44.018 E3.44557
G1 X169.778 Y44.185 E3.46399
G1 X170.092 Y44.293 E3.47504
G1 X170.965 Y44.636 E3.50623
G1 X171.704 Y44.996 E3.53357
G1 X171.96 Y45.133 E3.54323
G1 X172.768 Y45.611 E3.57446
G1 X173.442 Y46.087 E3.6019
G1 X173.712 Y46.293 E3.61319
G1 X174.433 Y46.893 E3.64439
G1 X174.938 Y47.382 E3.66777
G1 X175.128 Y47.578 E3.67685
G1 X175.752 Y48.278 E3.70804
G1 X176.313 Y49.029 E3.73922
G1 X176.658 Y49.567 E3.76048
G1 X176.979 Y50.101 E3.7812
G1 X177.427 Y50.924 E3.81237
G1 X177.948 Y52.175 E3.85744
G1 X178.014 Y52.366 E3.86416
G1 X178.332 Y53.471 E3.9024
G1 X178.381 Y53.682 E3.90961
G1 X178.584 Y54.825 E3.94822
G1 X178.609 Y55.028 E3.95502
G1 X178.68 Y55.891 E3.98382
G1 X178.699 Y56.399 E4.00073
G1 X178.708 Y56.983 E4.02016
G1 X178.708 Y166.482 E7.66211
G1 X178.707 Y166.634 E7.66716
G1 X178.696 Y167.43 E7.69364
G1 X178.66 Y168.183 E7.71872
G1 X178.643 Y168.389 E7.72559
G1 X178.479 Y169.576 E7.76545
G1 X178.436 Y169.798 E7.77297
G1 X178.219 Y170.71 E7.80415
G1 X178.038 Y171.286 E7.82423
G1 X177.932 Y171.594 E7.83506
G1 X177.59 Y172.467 E7.86625
G1 X177.337 Y172.998 E7.88581
G1 X177.244 Y173.181 E7.89264
G1 X176.708 Y174.118 E7.92854
G1 X176.586 Y174.309 E7.93608
G1 X175.818 Y175.368 E7.97959
G1 X175.685 Y175.53 E7.98656
G1 X174.817 Y176.47 E8.02912
G1 X174.623 Y176.657 E8.03808
G1 X173.921 Y177.278 E8.06925
G1 X173.306 Y177.742 E8.09487
G1 X173.028 Y177.937 E8.10617
G1 X172.238 Y178.443 E8.13737
G1 X171.714 Y178.729 E8.15723
G1 X171.526 Y178.825 E8.16425
G1 X170.555 Y179.262 E8.19966
G1 X170.357 Y179.34 E8.20674
G1 X169.179 Y179.729 E8.248
G1 X168.978 Y179.783 E8.25493
G1 X167.635 Y180.056 E8.30051
G1 X167.361 Y180.094 E8.30971
G1 X166.32 Y180.188 E8.34447
G1 X165.799 Y180.207 E8.36181
G1 X165.272 Y180.215 E8.37934
G1 X79.115 Y180.215 E11.24494
G1 X78.958 Y180.214 E11.25016
G1 X78.188 Y180.203 E11.27577
G1 X77.414 Y180.165 E11.30154
G1 X77.202 Y180.147 E11.30862
G1 X75.995 Y179.976 E11.34917
G1 X75.778 Y179.933 E11.35653
G1 X74.866 Y179.712 E11.38774
G1 X74.349 Y179.549 E11.40577
G1 X74.031 Y179.44 E11.41695
G1 X73.158 Y179.098 E11.44813
G1 X72.552 Y178.808 E11.47048
G1 X72.368 Y178.713 E11.47736
G1 X71.393 Y178.145 E11.51489
G1 X71.208 Y178.024 E11.52225
G1 X70.257 Y177.327 E11.56146
G1 X70.102 Y177.2 E11.56813
G1 X69.155 Y176.326 E11.61099
G1 X68.967 Y176.131 E11.62
G1 X68.345 Y175.428 E11.65122
G1 X67.847 Y174.765 E11.6788
G1 X67.641 Y174.468 E11.69082
G1 X67.14 Y173.675 E11.72202
G1 X66.783 Y173 E11.74741
G1 X66.669 Y172.765 E11.7561
G1 X66.167 Y171.55 E11.79983
G1 X66.097 Y171.347 E11.80697
G1 X65.773 Y170.215 E11.84613
G1 X65.727 Y170.014 E11.85299
G1 X65.532 Y168.905 E11.89044
G1 X65.507 Y168.702 E11.89724
G1 X65.436 Y167.839 E11.92604
G1 X65.416 Y167.306 E11.94378
G1 X65.408 Y166.695 E11.96411
G1 X65.408 Y57.193 E15.60616
G1 X65.409 Y57.03 E15.61158
G1 X65.42 Y56.289 E15.63623
G1 X65.458 Y55.521 E15.6618
G1 X65.476 Y55.309 E15.66888
G1 X65.639 Y54.14 E15.70814
G1 X65.681 Y53.924 E15.71546
G1 X65.899 Y53.012 E15.74664
G1 X66.101 Y52.376 E15.76884
G1 X66.217 Y52.046 E15.78047
G1 X66.566 Y51.175 E15.81168
G1 X66.82 Y50.649 E15.83111
G1 X66.916 Y50.463 E15.83807
G1 X67.514 Y49.443 E15.8774
G1 X67.629 Y49.269 E15.88433
G0 F6000 X67.963 Y49.489
G1 F1200 X68.616 Y48.605 E15.92089
G1 X68.745 Y48.448 E15.92765
G1 X69.601 Y47.524 E15.96954
G1 X69.793 Y47.34 E15.97838
G1 X70.485 Y46.732 E16.00902
G1 X71.226 Y46.187 E16.03962
G1 X71.666 Y45.908 E16.05694
G1 X72.2 Y45.587 E16.07767
G1 X73.009 Y45.147 E16.1083
G1 X74.199 Y44.653 E16.15115
G1 X74.39 Y44.587 E16.15787
G1 X75.408 Y44.292 E16.19312
G1 X75.619 Y44.242 E16.20034
G1 X76.818 Y44.029 E16.24084
G1 X77.021 Y44.005 E16.24764
G1 X77.813 Y43.942 E16.27406
G1 X78.325 Y43.923 E16.29111
G1 X78.844 Y43.915 E16.30837
G1 X165.001 Y43.915 E19.17396
G1 X165.152 Y43.916 E19.17898
G1 X165.923 Y43.927 E19.20463
G1 X166.673 Y43.964 E19.22961
G1 X166.884 Y43.982 E19.23665
G1 X168.043 Y44.146 E19.27558
G1 X168.26 Y44.189 E19.28294
G1 X169.155 Y44.407 E19.31358
G1 X169.648 Y44.563 E19.33078
G1 X169.962 Y44.671 E19.34182
G1 X170.818 Y45.008 E19.37242
G1 X171.515 Y45.349 E19.39823
G1 X171.771 Y45.486 E19.40788
G1 X172.564 Y45.955 E19.43853
G1 X173.2 Y46.405 E19.46444
G1 X173.47 Y46.611 E19.47574
G1 X174.177 Y47.2 E19.50634
G1 X174.651 Y47.66 E19.52831
G1 X174.841 Y47.856 E19.53739
G1 X175.452 Y48.544 E19.56799
G1 X176.002 Y49.283 E19.59863
G1 X176.315 Y49.773 E19.61797
G1 X176.636 Y50.307 E19.63869
G1 X177.076 Y51.116 E19.66932
G1 X177.57 Y52.306 E19.71218
G1 X177.636 Y52.497 E19.7189
G1 X177.942 Y53.561 E19.75572
G1 X177.991 Y53.772 E19.76293
G1 X178.187 Y54.874 E19.80016
G1 X178.212 Y55.077 E19.80696
G1 X178.281 Y55.909 E19.83473
G1 X178.299 Y56.407 E19.8513
G1 X178.308 Y56.983 E19.87046
G1 X178.308 Y166.482 E23.51241
G1 X178.307 Y166.628 E23.51727
G1 X178.296 Y167.424 E23.54375
G1 X178.261 Y168.15 E23.56792
G1 X178.244 Y168.356 E23.5748
G1 X178.087 Y169.5 E23.6132
G1 X178.044 Y169.722 E23.62072
G1 X177.829 Y170.617 E23.65134
G1 X177.66 Y171.155 E23.67009
G1 X177.554 Y171.463 E23.68093
G1 X177.217 Y172.32 E23.71156
G1 X176.981 Y172.816 E23.72982
G1 X176.888 Y172.999 E23.73665
G1 X176.371 Y173.903 E23.77129
G1 X176.249 Y174.094 E23.77883
G1 X175.509 Y175.114 E23.82074
G1 X175.376 Y175.276 E23.82771
G1 X174.539 Y176.182 E23.86874
G1 X174.345 Y176.369 E23.8777
G1 X173.655 Y176.978 E23.90831
G1 X173.076 Y177.415 E23.93244
G1 X172.798 Y177.61 E23.94373
G1 X172.022 Y178.105 E23.97434
G1 X171.532 Y178.372 E23.9929
G1 X171.344 Y178.468 E23.99992
G1 X170.408 Y178.89 E24.03407
G1 X170.21 Y178.968 E24.04115
G1 X169.075 Y179.343 E24.08091
G1 X168.874 Y179.397 E24.08783
G1 X167.58 Y179.66 E24.13175
G1 X167.306 Y179.698 E24.14095
G1 X166.303 Y179.788 E24.17444
G1 X165.791 Y179.807 E24.19149
G1 X165.272 Y179.815 E24.20875
G1 X79.115 Y179.815 E27.07434
G1 X78.964 Y179.814 E27.07937
G1 X78.194 Y179.803 E27.10498
G1 X77.448 Y179.766 E27.12982
G1 X77.236 Y179.748 E27.1369
G1 X76.073 Y179.584 E27.17596
G1 X75.856 Y179.541 E27.18332
G1 X74.961 Y179.323 E27.21396
G1 X74.479 Y179.17 E27.23078
G1 X74.161 Y179.061 E27.24196
G1 X73.304 Y178.725 E27.27257
G1 X72.735 Y178.453 E27.29355
G1 X72.551 Y178.358 E27.30044
G1 X71.612 Y177.81 E27.3366
G1 X71.427 Y177.689 E27.34395
G1 X70.511 Y177.017 E27.38174
G1 X70.356 Y176.89 E27.3884
G1 X69.443 Y176.048 E27.42971
G1 X69.255 Y175.853 E27.43872
G1 X68.645 Y175.163 E27.46935
G1 X68.176 Y174.537 E27.49537
G1 X67.97 Y174.24 E27.50739
G1 X67.479 Y173.462 E27.53799
G1 X67.143 Y172.825 E27.56194
G1 X67.029 Y172.59 E27.57063
G1 X66.545 Y171.42 E27.61274
G1 X66.475 Y171.217 E27.61988
G1 X66.163 Y170.126 E27.65762
G1 X66.117 Y169.925 E27.66448
G1 X65.929 Y168.856 E27.70058
G1 X65.904 Y168.653 E27.70739
G1 X65.835 Y167.821 E27.73515
G1 X65.816 Y167.3 E27.75249
G1 X65.808 Y166.695 E27.77262
G1 X65.808 Y57.193 E31.41467
G1 X65.809 Y57.036 E31.41989
G1 X65.82 Y56.295 E31.44454
G1 X65.857 Y55.555 E31.46918
G1 X65.875 Y55.343 E31.47626
G1 X66.032 Y54.217 E31.51407
G1 X66.074 Y54.001 E31.52139
G1 X66.289 Y53.106 E31.55201
G1 X66.479 Y52.509 E31.57284
G1 X66.595 Y52.179 E31.58448
G1 X66.938 Y51.324 E31.61512
G1 X67.176 Y50.832 E31.6333
G1 X67.272 Y50.646 E31.64026
G1 X67.848 Y49.663 E31.67815
G1 X67.963 Y49.489 E31.68509
G0 F6000 X68.297 Y49.71
G1 F1200 X68.925 Y48.859 E31.72027
G1 X69.054 Y48.702 E31.72702
G1 X69.878 Y47.813 E31.76734
G1 X70.07 Y47.629 E31.77619
G1 X70.749 Y47.033 E31.80623
G1 X71.478 Y46.5 E31.83627
G1 X71.872 Y46.251 E31.85177
G1 X72.406 Y45.93 E31.8725
G1 X73.2 Y45.499 E31.90254
G1 X74.33 Y45.031 E31.94322
G1 X74.521 Y44.965 E31.94995
G1 X75.5 Y44.681 E31.98385
G1 X75.711 Y44.631 E31.99106
G1 X76.865 Y44.427 E32.03004
G1 X77.068 Y44.403 E32.03684
G1 X77.83 Y44.341 E32.06227
G1 X78.332 Y44.323 E32.07897
G1 X78.844 Y44.315 E32.096
G1 X165.001 Y44.315 E34.9616
G1 X165.147 Y44.316 E34.96645
G1 X165.918 Y44.327 E34.9921
G1 X166.639 Y44.363 E35.01611
G1 X166.85 Y44.381 E35.02315
G1 X167.966 Y44.539 E35.06064
G1 X168.183 Y44.582 E35.068
G1 X169.06 Y44.796 E35.09803
G1 X169.518 Y44.942 E35.11401
G1 X169.832 Y45.05 E35.12506
G1 X170.672 Y45.381 E35.15509
G1 X171.327 Y45.702 E35.17935
G1 X171.583 Y45.839 E35.18901
G1 X172.359 Y46.3 E35.21903
G1 X172.957 Y46.723 E35.24339
G1 X173.227 Y46.929 E35.25468
G1 X173.92 Y47.508 E35.28472
G1 X174.364 Y47.938 E35.30528
G1 X174.554 Y48.134 E35.31436
G1 X175.153 Y48.81 E35.3444
G1 X175.69 Y49.536 E35.37443
G1 X175.972 Y49.979 E35.3919
G1 X176.293 Y50.513 E35.41262
G1 X176.724 Y51.307 E35.44267
G1 X177.192 Y52.437 E35.48335
G1 X177.258 Y52.628 E35.49007
G1 X177.553 Y53.652 E35.52551
G1 X177.602 Y53.863 E35.53272
G1 X177.79 Y54.923 E35.56852
G1 X177.815 Y55.126 E35.57533
G1 X177.881 Y55.926 E35.60203
G1 X177.899 Y56.414 E35.61827
G1 X177.908 Y56.983 E35.6372
G1 X177.908 Y166.482 E39.27915
G1 X177.907 Y166.623 E39.28384
G1 X177.896 Y167.419 E39.31031
G1 X177.862 Y168.117 E39.33356
G1 X177.845 Y168.323 E39.34043
G1 X177.694 Y169.424 E39.37739
G1 X177.651 Y169.646 E39.38492
G1 X177.44 Y170.524 E39.41495
G1 X177.282 Y171.025 E39.43242
G1 X177.176 Y171.333 E39.44326
G1 X176.844 Y172.173 E39.4733
G1 X176.624 Y172.635 E39.49032
G1 X176.531 Y172.818 E39.49714
G1 X176.034 Y173.688 E39.53047
G1 X175.912 Y173.879 E39.53801
G1 X175.2 Y174.86 E39.57832
G1 X175.067 Y175.022 E39.58529
G1 X174.262 Y175.894 E39.62477
G1 X174.068 Y176.081 E39.63373
G1 X173.39 Y176.678 E39.66377
G1 X172.846 Y177.088 E39.68643
G1 X172.568 Y177.283 E39.69773
G1 X171.807 Y177.768 E39.72774
G1 X171.35 Y178.016 E39.74503
G1 X171.162 Y178.112 E39.75206
G1 X170.262 Y178.518 E39.78489
G1 X170.064 Y178.596 E39.79197
G1 X168.971 Y178.957 E39.83026
G1 X168.77 Y179.011 E39.83718
G1 X167.525 Y179.263 E39.87943
G1 X167.251 Y179.301 E39.88863
G1 X166.286 Y179.389 E39.92086
G1 X165.784 Y179.407 E39.93756
G1 X165.272 Y179.415 E39.9546
G1 X79.115 Y179.415 E42.82019
G1 X78.969 Y179.414 E42.82505
G1 X78.199 Y179.403 E42.85066
G1 X77.482 Y179.367 E42.87454
G1 X77.27 Y179.349 E42.88161
G1 X76.15 Y179.191 E42.91923
G1 X75.933 Y179.148 E42.92659
G1 X75.056 Y178.934 E42.95662
G1 X74.609 Y178.792 E42.97222
G1 X74.291 Y178.683 E42.9834
G1 X73.45 Y178.353 E43.01344
G1 X72.919 Y178.097 E43.03305
G1 X72.735 Y178.002 E43.03994
G1 X71.831 Y177.475 E43.07474
G1 X71.646 Y177.354 E43.08209
G1 X70.764 Y176.708 E43.11846
G1 X70.609 Y176.581 E43.12512
G1 X69.731 Y175.77 E43.16487
G1 X69.543 Y175.575 E43.17388
G1 X68.945 Y174.898 E43.20393
G1 X68.505 Y174.309 E43.22838
G1 X68.299 Y174.012 E43.2404
G1 X67.817 Y173.248 E43.27045
G1 X67.503 Y172.651 E43.29288
G1 X67.389 Y172.416 E43.30157
G1 X66.923 Y171.289 E43.34213
G1 X66.853 Y171.086 E43.34927
G1 X66.553 Y170.036 E43.38559
G1 X66.507 Y169.835 E43.39245
G1 X66.326 Y168.807 E43.42717
G1 X66.301 Y168.604 E43.43397
G1 X66.235 Y167.804 E43.46067
G1 X66.216 Y167.293 E43.47768
G1 X66.208 Y166.695 E43.49757
G1 X66.208 Y57.193 E47.13962
G1 X66.209 Y57.042 E47.14464
G1 X66.22 Y56.301 E47.16929
G1 X66.256 Y55.589 E47.193
G1 X66.274 Y55.377 E47.20008
G1 X66.425 Y54.293 E47.23648
G1 X66.467 Y54.077 E47.2438
G1 X66.678 Y53.199 E47.27384
G1 X66.856 Y52.641 E47.29332
G1 X66.972 Y52.311 E47.30495
G1 X67.309 Y51.474 E47.33496
G1 X67.531 Y51.016 E47.35189
G1 X67.627 Y50.83 E47.35885
G1 X68.182 Y49.884 E47.39533
G1 X68.297 Y49.71 E47.40227
G1 F2700 E42.40227
;MESH:Box.stl
G0 F6000 X75.756 Y56.24
G0 X76.827 Y56.534
G0 X77.602 Y167.399
G0 X77.804 Y167.746
G0 X78.297 Y168.208
;TYPE:WALL-INNER
G1 F2700 E47.40227
G1 F1200 X78.188 Y168.19 E47.40594
G1 X78.11 Y168.17 E47.40862
G1 X78.005 Y168.13 E47.41236
G1 X77.902 Y168.077 E47.41621
G1 X77.82 Y168.023 E47.41947
G1 X77.745 Y167.962 E47.42269
G1 X77.665 Y167.882 E47.42645
G1 X77.601 Y167.802 E47.42986
G1 X77.547 Y167.72 E47.43313
G1 X77.5 Y167.628 E47.43656
G1 X77.46 Y167.526 E47.44021
G1 X77.435 Y167.433 E47.44341
G1 X77.416 Y167.31 E47.44755
G1 X77.409 Y167.199 E47.45125
G1 X77.408 Y166.983 E47.45843
G1 X77.408 Y56.561 E51.13108
G1 X77.415 Y56.404 E51.13631
G1 X77.433 Y56.295 E51.13998
G1 X77.454 Y56.216 E51.1427
G1 X77.493 Y56.113 E51.14637
G1 X77.541 Y56.02 E51.14985
G1 X77.603 Y55.924 E51.15365
G1 X77.667 Y55.847 E51.15698
G1 X77.739 Y55.774 E51.16039
G1 X77.811 Y55.715 E51.16349
G1 X77.912 Y55.65 E51.16748
G1 X77.992 Y55.608 E51.17049
G1 X78.101 Y55.567 E51.17436
G1 X78.193 Y55.542 E51.17753
G1 X78.313 Y55.523 E51.18157
G1 X78.425 Y55.516 E51.1853
G1 X78.595 Y55.515 E51.19096
G1 X165.662 Y55.515 E54.08682
G1 X165.817 Y55.522 E54.09198
G1 X165.911 Y55.537 E54.09514
G1 X166.019 Y55.566 E54.09886
G1 X166.116 Y55.604 E54.10233
G1 X166.201 Y55.647 E54.1055
G1 X166.299 Y55.71 E54.10937
G1 X166.376 Y55.773 E54.11268
G1 X166.449 Y55.846 E54.11611
G1 X166.508 Y55.918 E54.11921
G1 X166.573 Y56.019 E54.1232
G1 X166.614 Y56.099 E54.12619
G1 X166.657 Y56.211 E54.13018
G1 X166.682 Y56.301 E54.13329
G1 X166.699 Y56.41 E54.13696
G1 X166.707 Y56.524 E54.14076
G1 X166.708 Y56.747 E54.14818
G1 X166.708 Y167.168 E57.8208
G1 X166.701 Y167.323 E57.82596
G1 X166.686 Y167.418 E57.82916
G1 X166.657 Y167.526 E57.83288
G1 X166.619 Y167.623 E57.83634
G1 X166.574 Y167.711 E57.83963
G1 X166.517 Y167.799 E57.84311
G1 X166.447 Y167.886 E57.84683
G1 X166.377 Y167.957 E57.85014
G1 X166.299 Y168.02 E57.85348
G1 X166.216 Y168.074 E57.85677
G1 X166.116 Y168.125 E57.86051
G1 X166.019 Y168.163 E57.86397
G1 X165.926 Y168.188 E57.86717
G1 X165.803 Y168.207 E57.87131
G1 X165.691 Y168.214 E57.87505
G1 X165.521 Y168.215 E57.8807
G1 X78.454 Y168.215 E60.77656
G1 X78.297 Y168.208 E60.78179
G0 F6000 X78.26 Y168.607
G1 F1200 X78.109 Y168.583 E60.78687
G1 X77.982 Y168.549 E60.79125
G1 X77.84 Y168.495 E60.7963
G1 X77.706 Y168.426 E60.80131
G1 X77.586 Y168.348 E60.80607
G1 X77.47 Y168.253 E60.81106
G1 X77.371 Y168.154 E60.81572
G1 X77.355 Y168.133 E60.81659
G1 X77.279 Y168.04 E60.82059
G1 X77.199 Y167.918 E60.82544
G1 X77.134 Y167.791 E60.83019
G1 X77.088 Y167.67 E60.83449
G1 X77.08 Y167.651 E60.83518
G1 X77.075 Y167.63 E60.8359
G1 X77.043 Y167.513 E60.83993
G1 X77.018 Y167.358 E60.84515
G1 X77.011 Y167.223 E60.84965
G1 X77.009 Y167.205 E60.85025
G1 X77.008 Y166.983 E60.85763
G1 X77.008 Y56.543 E64.53088
G1 X77.016 Y56.367 E64.53674
G1 X77.04 Y56.216 E64.54183
G1 X77.074 Y56.089 E64.5462
G1 X77.128 Y55.947 E64.55125
G1 X77.193 Y55.822 E64.55594
G1 X77.28 Y55.687 E64.56128
G1 X77.37 Y55.577 E64.56601
G1 X77.47 Y55.477 E64.57071
G1 X77.574 Y55.392 E64.57518
G1 X77.71 Y55.304 E64.58057
G1 X77.808 Y55.254 E64.58423
G1 X77.83 Y55.242 E64.58506
G1 X77.977 Y55.186 E64.59029
